X: 848
T: The green gates
C: anon.
O: Ireland
B: Francis O'Neill: "The Dance Music of Ireland" (1907) no. 764
R: Reel
Z: Transcribed by Frank Nordberg - http://www.musicaviva.com
F: http://www.musicaviva.com/abc/tunes/ireland/oneill-1001/oneill-1001-076
4.abc
M: C|
L: 1/8
K: G
D|GBdg egdB|GBdg (3(efg) (dg)|eAcA eAcA|cdef gedB|GBdg egdB|
GBdg (3(efg) (dB)|cdef gedc|BGAF G2 "^1)"z2||dg (3(gfg) bg (3(gfg)|dgfg (
3(efg) (df)|
eAcA eAcA|cdef gedB|dg (3(gfg) bg (3(gfg)|dgfg e2(dB)|cdef gedc|BGAF G2 z
|]
W:
W:
W: 1) org. 8th note rest.
W:
W:
W: From Musica Viva - http://www.musicaviva.com
W: the Internet center for free sheet music downloads.


